packages/core/src/svgs/tokens/branded/OZO.svg

<svg width="24" height="24" viewBox="0 0 24 24" fill="none" xmlns="http://www.w3.org/2000/svg">
<path d="M12.3876 4.13783C12.4001 3.98158 12.5251 3.86909 12.6688 3.8191C12.8677 3.74468 13.0352 3.60501 13.1443 3.42293C13.2534 3.24085 13.2976 3.02713 13.2693 2.81674C13.2411 2.60637 13.1424 2.41176 12.9893 2.26478C12.8362 2.1178 12.6377 2.02714 12.4264 2.00763C12.2149 1.98812 12.0032 2.04092 11.8257 2.15738C11.6484 2.27385 11.5157 2.44708 11.4495 2.64876C11.3833 2.85043 11.3875 3.0686 11.4613 3.26758C11.5352 3.46655 11.6745 3.63455 11.8564 3.7441C11.9876 3.8191 12.0876 3.95658 12.0751 4.10658L12.0125 4.85654C11.9939 5.00654 11.8626 5.12529 11.7126 5.16904C11.5915 5.19951 11.4756 5.24796 11.3689 5.31278C11.2376 5.39402 11.0563 5.40653 10.9376 5.31278L10.1814 4.7003C10.0564 4.60031 10.0315 4.42532 10.0815 4.28157C10.1766 4.00325 10.1704 3.70029 10.0643 3.42599C9.95797 3.15171 9.75848 2.92366 9.5008 2.78197C9.24298 2.64029 8.94353 2.59405 8.65502 2.65137C8.36653 2.7087 8.1075 2.86591 7.92349 3.09539C7.73947 3.32486 7.6423 3.61186 7.64902 3.90592C7.65574 4.19998 7.76594 4.48225 7.96026 4.70306C8.15456 4.92387 8.42052 5.0691 8.71133 5.11318C9.00213 5.15725 9.29913 5.09736 9.55024 4.94404C9.68149 4.85654 9.86275 4.84404 9.98145 4.94404L10.7438 5.55027C10.869 5.65027 10.8939 5.82526 10.8376 5.969C10.7946 6.10004 10.7734 6.23731 10.7752 6.37523C10.7752 6.45649 10.7252 6.52523 10.6502 6.54398C10.1314 6.66897 9.64401 6.87521 9.19398 7.13145C9.08146 7.19395 8.94396 7.19395 8.83147 7.13145C8.67261 7.05115 8.49843 7.00572 8.3206 6.99818C8.14275 6.99062 7.96535 7.02116 7.80026 7.0877C7.65651 7.1502 7.48152 7.13145 7.37529 7.01271L6.68781 6.23774C6.58782 6.1315 6.58782 5.96276 6.63781 5.82526C6.71276 5.62677 6.71816 5.40873 6.65313 5.20678C6.5881 5.00482 6.45649 4.83089 6.2798 4.71343C6.10312 4.59596 5.89181 4.54191 5.68042 4.56009C5.46905 4.57827 5.27008 4.66764 5.11606 4.81355C4.96203 4.95947 4.86205 5.15332 4.83248 5.36341C4.80291 5.5735 4.84546 5.78742 4.95321 5.9702C5.06096 6.15296 5.22753 6.29377 5.42568 6.36962C5.62383 6.44546 5.84184 6.45185 6.04409 6.38773C6.19409 6.33774 6.36908 6.35649 6.46907 6.46898L7.13779 7.21894C7.24404 7.34395 7.24404 7.51268 7.16279 7.65643C7.06905 7.83142 7.0128 8.03142 7.0128 8.25016C7.0128 8.26266 7.00655 8.27516 6.99405 8.27516L5.36287 8.5064C5.20662 8.53139 5.06287 8.4314 4.98788 8.28765C4.85933 8.03658 4.64961 7.83638 4.39286 7.71957C4.1361 7.60278 3.84739 7.57626 3.57366 7.64434C3.29991 7.71241 3.05725 7.87107 2.8851 8.09452C2.71297 8.31797 2.62146 8.59309 2.62547 8.87513C2.62547 9.2075 2.75751 9.52614 2.99249 9.76121C3.22749 9.99614 3.54621 10.1283 3.87855 10.1283C4.21089 10.1283 4.52961 9.99614 4.76461 9.76121C4.9996 9.52614 5.13163 9.2075 5.13163 8.87513C5.13163 8.86264 5.14413 8.85012 5.15663 8.85012L6.8003 8.61889C6.9503 8.59389 7.08155 8.69388 7.15029 8.82513C7.21279 8.93138 7.21279 9.06262 7.15029 9.16886C6.8878 9.61888 6.68781 10.1064 6.55657 10.6251C6.54575 10.6614 6.52345 10.6932 6.49303 10.7156C6.4626 10.7383 6.42569 10.7502 6.38782 10.7501C6.14943 10.7489 5.91567 10.816 5.71414 10.9433C5.5126 11.0706 5.35168 11.253 5.25036 11.4687C5.18788 11.6125 5.04413 11.7188 4.88788 11.7063L4.13792 11.6437C3.98792 11.625 3.87543 11.5001 3.82543 11.3563C3.75333 11.1434 3.60708 10.9633 3.41333 10.8492C3.2196 10.735 2.9913 10.6944 2.77005 10.7345C2.5488 10.7746 2.34935 10.893 2.20809 11.068C2.06682 11.2428 1.99315 11.4627 2.0005 11.6874C1.99747 11.8951 2.06346 12.0979 2.18812 12.264C2.31279 12.4301 2.48907 12.55 2.68929 12.6051C2.88952 12.6603 3.10236 12.6473 3.29443 12.5682C3.48648 12.4892 3.64688 12.3488 3.75043 12.1687C3.82543 12.0437 3.96293 11.9375 4.11291 11.9499L4.86289 12.0125C5.01913 12.0313 5.13162 12.1625 5.17538 12.3187C5.20662 12.4374 5.25662 12.55 5.31912 12.6562C5.40036 12.7874 5.41286 12.9687 5.31912 13.0874L4.70665 13.8436C4.60664 13.9686 4.4379 13.9937 4.2879 13.9437C4.09939 13.8778 3.89783 13.8579 3.7001 13.8859C3.50238 13.9141 3.31424 13.989 3.15144 14.1047C2.98866 14.2203 2.85594 14.3733 2.76443 14.5508C2.67293 14.7284 2.62527 14.9251 2.62547 15.1249C2.62833 15.3164 2.67517 15.5048 2.76238 15.6752C2.84958 15.8459 2.97482 15.994 3.12842 16.1085C3.28203 16.223 3.45988 16.3007 3.64825 16.3354C3.83663 16.3702 4.03047 16.3612 4.21483 16.3091C4.39918 16.2572 4.56912 16.1635 4.71149 16.0353C4.85387 15.9071 4.96489 15.748 5.03598 15.5701C5.10707 15.3922 5.13633 15.2004 5.12148 15.0094C5.10664 14.8185 5.0481 14.6334 4.95038 14.4687C4.86913 14.3374 4.85663 14.1562 4.95038 14.0374L5.56286 13.2812C5.65661 13.1562 5.8316 13.1311 5.98159 13.1812C6.10659 13.2249 6.24407 13.25 6.38782 13.25C6.46282 13.25 6.53781 13.3 6.55657 13.375C6.68156 13.8937 6.8878 14.3749 7.15029 14.8249C7.21279 14.9373 7.20653 15.0749 7.15029 15.1873C7.06402 15.3562 7.01747 15.5425 7.01422 15.7321C7.01097 15.9215 7.0511 16.1094 7.13154 16.281C7.19404 16.4248 7.19404 16.5998 7.08155 16.7124L6.49407 17.2997C6.38158 17.4061 6.21282 17.4123 6.06908 17.3623C5.86866 17.2933 5.65076 17.2942 5.45095 17.3649C5.25115 17.4358 5.08122 17.5722 4.96889 17.752C4.85657 17.9316 4.80848 18.1442 4.83248 18.3548C4.85647 18.5654 4.95114 18.7617 5.10102 18.9116C5.25092 19.0615 5.44717 19.1561 5.65778 19.18C5.86838 19.2041 6.08091 19.156 6.26067 19.0437C6.44044 18.9314 6.57682 18.7614 6.64759 18.5616C6.71835 18.3618 6.71931 18.1439 6.6503 17.9434C6.60032 17.7998 6.60656 17.6311 6.71281 17.5185L7.30653 16.9311C7.41278 16.8185 7.58777 16.8122 7.73151 16.8811C7.79592 16.9117 7.86283 16.9368 7.9315 16.956C8.08775 16.9998 8.21274 17.1185 8.22524 17.2685L8.30649 18.3122C8.31899 18.4684 8.21274 18.6059 8.069 18.6748C7.80969 18.7929 7.59852 18.996 7.4705 19.2506C7.34249 19.5052 7.30529 19.7959 7.36511 20.0746C7.42491 20.3531 7.57812 20.6029 7.79934 20.7825C8.02057 20.9622 8.29652 21.0608 8.58148 21.0621C8.88464 21.063 9.1778 20.9536 9.40631 20.7544C9.63482 20.5552 9.78313 20.2797 9.82367 19.9792C9.86421 19.6788 9.79406 19.3739 9.62651 19.1213C9.45895 18.8686 9.20521 18.6855 8.91271 18.6059C8.76272 18.5622 8.63147 18.4435 8.61897 18.2934L8.53773 17.2497C8.52524 17.0935 8.63773 16.956 8.78147 16.8874C8.80022 16.8874 8.81272 16.8748 8.83147 16.8685C8.94396 16.806 9.08146 16.806 9.19398 16.8685C9.64401 17.1248 10.1314 17.3248 10.6439 17.4561C10.7252 17.4747 10.7689 17.5436 10.7689 17.6248C10.7701 17.8635 10.8395 18.0968 10.9691 18.2974C11.0986 18.4977 11.283 18.657 11.5001 18.756C11.6376 18.8247 11.75 18.9622 11.7314 19.1185L11.6688 19.8683C11.6502 20.0184 11.5252 20.1308 11.3814 20.1809C11.1826 20.2554 11.0149 20.3949 10.9059 20.5771C10.7968 20.7592 10.7527 20.9728 10.7809 21.1833C10.809 21.3937 10.9077 21.5882 11.0609 21.7352C11.214 21.8822 11.4125 21.9728 11.6239 21.9923C11.8352 22.0119 12.0469 21.9591 12.2244 21.8426C12.4019 21.7262 12.5344 21.5529 12.6007 21.3513C12.6669 21.1496 12.6628 20.9314 12.5888 20.7324C12.5149 20.5335 12.3756 20.3655 12.1938 20.256C12.0688 20.1809 11.9625 20.0433 11.9751 19.8934L12.0439 19.1434C12.0626 18.9934 12.1875 18.8747 12.3439 18.8309C12.4627 18.7999 12.5764 18.7515 12.6813 18.6871C12.8188 18.6059 12.9938 18.5935 13.1188 18.6871L13.875 19.2996C14 19.3997 14.0249 19.5747 13.9751 19.7184C13.9102 19.9071 13.8914 20.1085 13.9204 20.306C13.9493 20.5033 14.0251 20.6908 14.1413 20.853C14.2575 21.0151 14.4108 21.1471 14.5886 21.2378C14.7662 21.3285 14.9629 21.3755 15.1624 21.3746C15.3556 21.374 15.5461 21.3285 15.7187 21.242C15.8915 21.1554 16.0417 21.0299 16.1578 20.8754C16.2739 20.721 16.3525 20.5416 16.3876 20.3516C16.4226 20.1618 16.4133 19.9662 16.3601 19.7804C16.3069 19.5946 16.2113 19.4239 16.081 19.2812C15.9506 19.1386 15.7889 19.0282 15.6086 18.9587C15.4284 18.889 15.2346 18.8621 15.0421 18.8801C14.8497 18.8982 14.6643 18.9604 14.5001 19.0622C14.3625 19.1434 14.1875 19.156 14.0626 19.0622L13.3063 18.4497C13.1813 18.3497 13.1563 18.1747 13.2063 18.0309C13.2494 17.9 13.2704 17.7627 13.2688 17.6248C13.2688 17.5436 13.325 17.4747 13.4001 17.4561C13.9188 17.331 14.4 17.1248 14.85 16.8685C14.9625 16.806 15.1 16.806 15.2187 16.8685C15.3881 16.9534 15.5747 16.9986 15.7641 17.0008C15.9537 17.003 16.141 16.962 16.3124 16.8811C16.4562 16.8185 16.6312 16.8185 16.7436 16.9311L17.3311 17.5185C17.4436 17.6248 17.4498 17.7998 17.3936 17.9434C17.3234 18.1439 17.3234 18.3622 17.3936 18.5628C17.4636 18.7633 17.5998 18.934 17.7796 19.0471C17.9594 19.1601 18.1723 19.2086 18.3833 19.1849C18.5943 19.1611 18.7912 19.0664 18.9412 18.9162C19.0914 18.766 19.1862 18.5693 19.21 18.3582C19.2338 18.1472 19.1852 17.9342 19.0722 17.7544C18.9592 17.5746 18.7884 17.4386 18.5879 17.3684C18.3874 17.2983 18.1691 17.2983 17.9686 17.3686C17.831 17.4123 17.6623 17.4061 17.5562 17.2997L16.9686 16.7124C16.8562 16.5998 16.8436 16.4248 16.9123 16.281C16.9937 16.1185 17.0374 15.9373 17.0374 15.7499C17.0374 15.7374 17.0375 15.7248 17.0561 15.7248L18.6811 15.4935C18.8435 15.4686 18.9873 15.5686 19.056 15.7123C19.1846 15.9634 19.3943 16.1636 19.6511 16.2804C19.9078 16.3972 20.1965 16.4238 20.4702 16.3557C20.7439 16.2876 20.9867 16.1289 21.1588 15.9055C21.3309 15.6821 21.4225 15.4069 21.4184 15.1249C21.4184 14.7934 21.2867 14.4754 21.0524 14.241C20.8179 14.0067 20.5 13.8748 20.1685 13.8748C19.837 13.8748 19.519 14.0067 19.2846 14.241C19.0503 14.4754 18.9186 14.7934 18.9186 15.1249C18.9186 15.1374 18.9061 15.1498 18.8935 15.1498L17.2499 15.3811C17.0999 15.406 16.9623 15.3061 16.8937 15.1749C16.8646 15.1223 16.8495 15.0631 16.8495 15.003C16.8495 14.9429 16.8646 14.8838 16.8937 14.8312C17.1562 14.3812 17.3624 13.8937 17.4873 13.375C17.5124 13.3 17.5811 13.25 17.6623 13.25C17.9193 13.2498 18.1698 13.1707 18.3801 13.0229C18.5904 12.8753 18.7499 12.6665 18.8373 12.425C18.8935 12.275 19.0248 12.1563 19.1811 12.1563H19.8623C20.0123 12.1563 20.1373 12.2687 20.206 12.4062C20.2942 12.6045 20.4483 12.766 20.6423 12.8632C20.8362 12.9605 21.0581 12.9875 21.2696 12.9395C21.4812 12.8917 21.6697 12.7718 21.8028 12.6005C21.9359 12.4291 22.0055 12.2169 21.9997 11.9999C22.0021 11.7856 21.9311 11.5769 21.7983 11.4085C21.6656 11.2402 21.4791 11.1225 21.2701 11.075C21.061 11.0274 20.8419 11.0529 20.6494 11.1474C20.457 11.2418 20.3027 11.3994 20.2123 11.5938C20.1497 11.7312 20.0247 11.8438 19.8685 11.8438H19.1811C19.0311 11.8438 18.8998 11.7188 18.8435 11.575C18.8186 11.4938 18.7811 11.4188 18.7374 11.3437C18.6499 11.2125 18.6373 11.0312 18.7374 10.9125L19.3436 10.1563C19.4436 10.0313 19.6186 10.0063 19.7685 10.0564C19.9566 10.121 20.1576 10.1398 20.3544 10.1112C20.5513 10.0826 20.7385 10.0074 20.9006 9.89187C21.0626 9.77638 21.1945 9.62384 21.2857 9.44695C21.377 9.27021 21.4245 9.07409 21.4247 8.87513C21.4235 8.68261 21.3777 8.49296 21.2912 8.321C21.2046 8.14904 21.0795 7.99941 20.9255 7.88377C20.7716 7.76813 20.593 7.68962 20.4037 7.65434C20.2144 7.61908 20.0196 7.628 19.8344 7.68043C19.6491 7.73285 19.4785 7.82738 19.3358 7.95661C19.1931 8.08583 19.0821 8.24628 19.0117 8.42545C18.9411 8.60459 18.9129 8.79763 18.9294 8.98945C18.9457 9.18125 19.0063 9.36675 19.106 9.53139C19.1872 9.66263 19.1998 9.84389 19.106 9.9626L18.4935 10.7189C18.3936 10.8438 18.2187 10.8688 18.0749 10.8187C17.9442 10.7735 17.8068 10.7504 17.6686 10.7501C17.6297 10.7517 17.5913 10.7403 17.5597 10.7175C17.528 10.6949 17.5047 10.6624 17.4936 10.6251C17.3686 10.1064 17.1687 9.62515 16.9062 9.17513C16.8766 9.11928 16.8611 9.05705 16.8611 8.99388C16.8611 8.93069 16.8766 8.86847 16.9062 8.81263C16.9914 8.64334 17.0369 8.45678 17.0391 8.26722C17.0412 8.07768 17 7.89013 16.9186 7.71893C16.8562 7.57519 16.8562 7.40019 16.9749 7.2877L17.5624 6.70022C17.6686 6.59397 17.8373 6.58773 17.9811 6.63772C18.1228 6.68781 18.2745 6.70312 18.4232 6.68233C18.5721 6.66153 18.7137 6.60527 18.8362 6.51827C18.9589 6.43127 19.0586 6.31608 19.1273 6.18242C19.1961 6.04875 19.2316 5.90055 19.231 5.75026C19.2295 5.61467 19.1986 5.481 19.1404 5.35852C19.0822 5.23604 18.9981 5.12765 18.894 5.04081C18.7897 4.95397 18.6681 4.89077 18.5371 4.85555C18.4062 4.82035 18.2691 4.81396 18.1354 4.83684C18.0018 4.85974 17.8746 4.91134 17.7629 4.98812C17.6511 5.0649 17.5573 5.16501 17.4879 5.28156C17.4186 5.3981 17.3755 5.5283 17.3613 5.66317C17.3472 5.79803 17.3625 5.93437 17.4061 6.06275C17.4561 6.20024 17.4498 6.37523 17.3437 6.48148L16.7499 7.06896C16.6374 7.18145 16.4625 7.18771 16.3187 7.11895C16.1524 7.04083 15.971 7.00029 15.7874 7.0002C15.7817 7.00039 15.7762 6.99863 15.7717 6.99522C15.7671 6.99182 15.7638 6.98696 15.7625 6.98146L15.5312 5.35653C15.5063 5.20029 15.6062 5.05654 15.7499 4.98155C15.9976 4.85126 16.1944 4.64164 16.3088 4.38624C16.4231 4.13085 16.4485 3.84446 16.3808 3.57293C16.3131 3.3014 16.1562 3.06045 15.9353 2.88865C15.7145 2.71685 15.4422 2.62415 15.1624 2.62539C14.8309 2.62539 14.513 2.75708 14.2785 2.9915C14.0442 3.2259 13.9125 3.54384 13.9125 3.87534C13.9125 4.20684 14.0442 4.52477 14.2785 4.75919C14.513 4.99359 14.8309 5.12529 15.1624 5.12529C15.1749 5.12529 15.1812 5.13154 15.1812 5.14404L15.4188 6.78772C15.4374 6.93146 15.3437 7.06896 15.2124 7.1377C15.1598 7.16669 15.1007 7.1819 15.0406 7.1819C14.9806 7.1819 14.9214 7.16669 14.8687 7.1377C14.4117 6.87189 13.9192 6.672 13.4064 6.54398C13.37 6.53316 13.3382 6.51087 13.3156 6.48045C13.2932 6.45001 13.2811 6.4131 13.2812 6.37523C13.2806 6.13723 13.2121 5.90433 13.0838 5.70394C12.9553 5.50355 12.7723 5.344 12.5563 5.24404C12.4125 5.17529 12.3064 5.03779 12.3188 4.88155L12.3876 4.13158V4.13783ZM10.8127 7.1502C10.9314 7.11895 11.0501 7.16895 11.1376 7.25645C11.2538 7.37361 11.392 7.46659 11.5444 7.53005C11.6967 7.59352 11.8601 7.62618 12.0251 7.62618C12.1902 7.62618 12.3535 7.59352 12.5057 7.53005C12.6581 7.46659 12.7964 7.37361 12.9126 7.25645C13.0001 7.16895 13.125 7.11895 13.2438 7.1502C13.65 7.2502 14.0438 7.40019 14.4063 7.60018C14.5438 7.67518 14.5937 7.84393 14.5562 8.00017C14.5141 8.20389 14.5235 8.41492 14.5836 8.61409C14.6437 8.81327 14.7525 8.9943 14.9002 9.14086C15.0479 9.28727 15.2299 9.3946 15.4296 9.45293C15.6292 9.51126 15.8404 9.51899 16.0436 9.4751C16.1937 9.44389 16.3687 9.48764 16.4436 9.62515C16.6312 9.98753 16.7874 10.375 16.8937 10.7875C16.9186 10.9062 16.8686 11.0251 16.7811 11.1126C16.664 11.2287 16.5709 11.3669 16.5075 11.5193C16.4441 11.6715 16.4114 11.835 16.4114 11.9999C16.4114 12.165 16.4441 12.3284 16.5075 12.4807C16.5709 12.633 16.664 12.7712 16.7811 12.8875C16.8686 12.9749 16.9186 13.0937 16.8937 13.2125C16.7874 13.6249 16.6374 14.0124 16.4436 14.3749C16.3687 14.5124 16.1937 14.5624 16.0436 14.5249C15.8408 14.4822 15.6304 14.4908 15.4316 14.5497C15.2328 14.6087 15.0517 14.7161 14.9049 14.8624C14.7579 15.0088 14.6497 15.1893 14.5899 15.3878C14.5302 15.5864 14.5208 15.7967 14.5625 15.9998C14.5937 16.156 14.5438 16.3247 14.4063 16.3998C14.0438 16.5998 13.6563 16.7498 13.2438 16.8497C13.1188 16.8811 13.0001 16.8311 12.9126 16.7436C12.7964 16.6265 12.6581 16.5334 12.5057 16.47C12.3535 16.4066 12.1902 16.3739 12.0251 16.3739C11.8601 16.3739 11.6967 16.4066 11.5444 16.47C11.392 16.5334 11.2538 16.6265 11.1376 16.7436C11.0501 16.8311 10.9314 16.8811 10.8127 16.8497C10.4079 16.749 10.0173 16.5979 9.65013 16.3998C9.51276 16.3247 9.46274 16.156 9.49395 15.9998C9.53566 15.7967 9.52633 15.5864 9.46654 15.3878C9.40675 15.1893 9.29854 15.0088 9.15155 14.8624C9.00464 14.7161 8.82361 14.6087 8.62482 14.5497C8.42602 14.4908 8.21567 14.4822 8.01276 14.5249C7.85652 14.5562 7.68776 14.5124 7.61277 14.3749C7.41446 14.0078 7.26326 13.6173 7.16279 13.2125C7.13154 13.0937 7.18778 12.9749 7.27529 12.8875C7.39243 12.7712 7.48543 12.633 7.54889 12.4807C7.61234 12.3284 7.64502 12.165 7.64502 11.9999C7.64502 11.835 7.61234 11.6715 7.54889 11.5193C7.48543 11.3669 7.39243 11.2287 7.27529 11.1126C7.18778 11.0251 7.13154 10.9062 7.16279 10.7875C7.26278 10.375 7.41278 9.98753 7.61277 9.62515C7.68776 9.48764 7.86276 9.43762 8.01276 9.4751C8.21567 9.51768 8.42602 9.50922 8.62482 9.45031C8.82361 9.39125 9.00464 9.28392 9.15155 9.13751C9.29854 8.99124 9.40675 8.81068 9.46654 8.61212C9.52633 8.41358 9.53566 8.20328 9.49395 8.00017C9.46274 7.84393 9.51276 7.67518 9.65013 7.60018C10.0127 7.40019 10.4001 7.2502 10.8127 7.1502Z" fill="url(#paint0_linear_364_3518)"/>
<defs>
<linearGradient id="paint0_linear_364_3518" x1="6.37532" y1="4.81279" x2="19.1872" y2="15.7499" gradientUnits="userSpaceOnUse">
<stop stop-color="#CCF404"/>
<stop offset="1" stop-color="#46BE10"/>
</linearGradient>
</defs>
</svg>

<svg xmlns="http://www.w3.org/2000/svg" width="24" height="24" fill="none" viewBox="0 0 24 24">
    <path fill="url(#OZO__a)" d="M12.388 4.138c.012-.156.137-.269.28-.319a.937.937 0 1 0-.812-.075c.132.075.232.213.22.363l-.064.75c-.018.15-.15.268-.3.312a1.3 1.3 0 0 0-.343.144c-.131.081-.313.094-.431 0L10.18 4.7c-.125-.1-.15-.275-.1-.418a1.25 1.25 0 1 0-.53.662c.13-.087.312-.1.43 0l.763.606c.125.1.15.275.094.419a1.3 1.3 0 0 0-.063.406.17.17 0 0 1-.125.169 5.6 5.6 0 0 0-1.456.587.37.37 0 0 1-.363 0 1.25 1.25 0 0 0-1.03-.043c-.144.062-.32.043-.426-.075l-.687-.775c-.1-.107-.1-.275-.05-.413a.937.937 0 1 0-.594.563c.15-.05.325-.032.425.081l.669.75c.106.125.106.294.025.437-.094.175-.15.375-.15.594 0 .013-.006.025-.019.025l-1.631.231c-.156.025-.3-.075-.375-.218a1.25 1.25 0 0 0-2.363.587 1.253 1.253 0 0 0 2.507 0c0-.012.012-.025.025-.025L6.8 8.62c.15-.025.282.075.35.206a.34.34 0 0 1 0 .344q-.395.676-.593 1.456a.174.174 0 0 1-.17.125 1.25 1.25 0 0 0-1.137.719c-.062.144-.206.25-.362.237l-.75-.062c-.15-.019-.263-.144-.313-.288a.938.938 0 0 0-1.824.331.938.938 0 0 0 1.75.482c.074-.125.212-.232.362-.22l.75.063c.156.02.269.15.312.307q.05.177.144.337c.081.131.094.313 0 .431l-.612.757c-.1.125-.27.15-.42.1a1.25 1.25 0 0 0-1.662 1.18 1.25 1.25 0 1 0 2.325-.655c-.08-.132-.093-.313 0-.432l.613-.756c.094-.125.269-.15.419-.1q.189.068.406.069c.075 0 .15.05.169.125.125.519.33 1 .593 1.45a.39.39 0 0 1 0 .362 1.24 1.24 0 0 0-.018 1.094c.062.144.062.319-.05.431l-.588.588c-.112.106-.281.112-.425.062a.938.938 0 1 0 .581.581c-.05-.143-.043-.312.063-.425l.594-.587c.106-.113.28-.119.425-.05q.096.046.2.075c.156.044.28.163.293.313l.081 1.043c.013.156-.093.294-.237.363a1.25 1.25 0 1 0 .844-.07c-.15-.043-.282-.162-.294-.312l-.081-1.043c-.013-.157.1-.294.243-.363.02 0 .032-.012.05-.018a.37.37 0 0 1 .363 0c.45.256.937.456 1.45.587.081.019.125.088.125.169a1.25 1.25 0 0 0 .731 1.131c.138.069.25.206.231.363l-.062.75c-.019.15-.144.262-.288.312a.937.937 0 1 0 .813.075c-.125-.075-.232-.213-.219-.363l.069-.75c.019-.15.143-.268.3-.312q.179-.047.337-.144c.138-.081.313-.094.438 0l.756.613c.125.1.15.275.1.418a1.25 1.25 0 0 0 1.187 1.657 1.25 1.25 0 1 0-.662-2.313c-.137.081-.312.094-.437 0l-.757-.612c-.125-.1-.15-.275-.1-.42q.065-.196.063-.405c0-.081.056-.15.131-.169.519-.125 1-.331 1.45-.587a.39.39 0 0 1 .369 0 1.25 1.25 0 0 0 1.093.012c.144-.062.32-.062.432.05l.587.587c.113.107.119.282.063.425a.937.937 0 1 0 .575-.574c-.138.043-.307.037-.413-.07l-.587-.587c-.113-.112-.125-.287-.057-.431.082-.162.125-.344.125-.531 0-.013 0-.025.02-.025l1.624-.232c.162-.024.306.076.375.22a1.25 1.25 0 0 0 2.362-.588 1.25 1.25 0 0 0-2.5 0c0 .012-.012.025-.024.025l-1.644.231c-.15.025-.288-.075-.356-.206a.36.36 0 0 1 0-.344c.262-.45.468-.937.593-1.456a.18.18 0 0 1 .175-.125 1.25 1.25 0 0 0 1.175-.825c.056-.15.188-.269.344-.269h.681c.15 0 .275.113.344.25A.937.937 0 0 0 22 12a.938.938 0 0 0-1.788-.406c-.062.137-.187.25-.343.25h-.688c-.15 0-.281-.125-.338-.269a1 1 0 0 0-.106-.231c-.087-.131-.1-.313 0-.431l.607-.757c.1-.125.275-.15.424-.1a1.25 1.25 0 0 0 1.657-1.18 1.25 1.25 0 1 0-2.319.655c.081.132.094.313 0 .432l-.613.756c-.1.125-.274.15-.418.1a1.3 1.3 0 0 0-.406-.069.174.174 0 0 1-.175-.125c-.125-.519-.325-1-.588-1.45a.39.39 0 0 1 0-.362 1.25 1.25 0 0 0 .013-1.094c-.063-.144-.063-.319.056-.431l.587-.588c.107-.106.275-.112.42-.062a.937.937 0 0 0 1.249-.888.937.937 0 1 0-1.825.313c.05.137.044.312-.062.418l-.594.588c-.113.112-.288.119-.431.05A1.25 1.25 0 0 0 15.787 7a.03.03 0 0 1-.015-.005.02.02 0 0 1-.01-.014l-.23-1.624c-.026-.157.074-.3.218-.375a1.25 1.25 0 0 0-.588-2.357 1.25 1.25 0 0 0 0 2.5q.02 0 .02.019l.237 1.644c.018.143-.075.281-.207.35a.36.36 0 0 1-.343 0 5.6 5.6 0 0 0-1.463-.594.175.175 0 0 1-.125-.169 1.25 1.25 0 0 0-.725-1.131c-.143-.069-.25-.206-.237-.362l.069-.75zM10.813 7.15c.118-.031.237.019.325.106a1.25 1.25 0 0 0 1.775 0c.087-.087.212-.137.33-.106.407.1.8.25 1.163.45.138.075.188.244.15.4a1.25 1.25 0 0 0 1.488 1.475c.15-.031.325.013.4.15.187.363.343.75.45 1.162a.36.36 0 0 1-.113.326 1.25 1.25 0 0 0 0 1.774.36.36 0 0 1 .113.325q-.16.619-.45 1.163c-.075.137-.25.187-.4.15A1.25 1.25 0 0 0 14.562 16c.032.156-.018.325-.156.4q-.543.3-1.162.45a.35.35 0 0 1-.331-.106 1.25 1.25 0 0 0-1.775 0c-.088.087-.207.137-.325.106a5 5 0 0 1-1.163-.45c-.137-.075-.187-.244-.156-.4a1.25 1.25 0 0 0-1.481-1.475c-.156.031-.325-.013-.4-.15a5 5 0 0 1-.45-1.162c-.031-.12.025-.238.112-.325a1.25 1.25 0 0 0 0-1.775c-.087-.088-.143-.207-.112-.325q.15-.619.45-1.163c.075-.137.25-.187.4-.15A1.25 1.25 0 0 0 9.494 8c-.031-.156.019-.325.156-.4q.544-.3 1.163-.45"/>
    <defs>
        <linearGradient id="OZO__a" x1="6.375" x2="19.187" y1="4.813" y2="15.75" gradientUnits="userSpaceOnUse">
            <stop stop-color="#CCF404"/>
            <stop offset="1" stop-color="#46BE10"/>
        </linearGradient>
    </defs>
</svg>
